images/menu-move-end.svg

<svg xmlns="http://www.w3.org/2000/svg" viewBox="0 0 128 64" enable-background="new 0 0 128 64"><style type="text/css">.st0{fill:#C7CBD7;} .st1{fill:#83868E;}</style><path class="st0" d="M12 32c0 11 9 20 20 20s20-9 20-20-9-20-20-20-20 9-20 20zm20 16c-8.8 0-16-7.2-16-16 0-3.7 1.3-7.1 3.4-9.8l22.4 22.4c-2.7 2.1-6.1 3.4-9.8 3.4zm16-16c0 3.7-1.3 7.1-3.4 9.8l-22.4-22.4c2.7-2.1 6.1-3.4 9.8-3.4 8.8 0 16 7.2 16 16zM30 17.1l-4.2 4.2h3.4v3.7l9.4 9.4h4v3.4l4.3-4.2c.1-.5.1-1 .1-1.6 0-.5 0-1-.1-1.6l-4.3-4.2v3.4h-8.6v-8.3h3.5l-4.3-4.3c-.4 0-.8-.1-1.1-.1-.8.1-1.5.2-2.1.2zM34 42.6v-4.4l-8.6-8.6h-4v-3.4l-4.3 4.2c-.1.5-.1 1.1-.1 1.6s0 1 .1 1.6l4.3 4.2v-3.4h7.8v8.3h-3.4l4.2 4.1c.7.1 1.3.2 2 .2h1.1l4.3-4.3h-3.4v-.1z"/><path class="st1" d="M76 32c0 11 9 20 20 20s20-9 20-20-9-20-20-20-20 9-20 20zm20 16c-8.8 0-16-7.2-16-16 0-3.7 1.3-7.1 3.4-9.8l22.4 22.4c-2.7 2.1-6.1 3.4-9.8 3.4zm16-16c0 3.7-1.3 7.1-3.4 9.8l-22.4-22.4c2.7-2.1 6.1-3.4 9.8-3.4 8.8 0 16 7.2 16 16zM94 17.1l-4.2 4.2h3.4v3.7l9.4 9.4h4v3.4l4.3-4.2c.1-.5.1-1 .1-1.6 0-.5 0-1-.1-1.6l-4.3-4.2v3.4h-8.6v-8.3h3.5l-4.3-4.3c-.4 0-.8-.1-1.1-.1-.8.1-1.5.2-2.1.2zM98 42.6v-4.4l-8.6-8.6h-4v-3.4l-4.3 4.2c-.1.5-.1 1.1-.1 1.6s0 1 .1 1.6l4.3 4.2v-3.4h7.8v8.3h-3.4l4.2 4.1c.7.1 1.3.2 2 .2h1.1l4.3-4.3-3.4-.1z"/></svg>

<?xml version="1.0" encoding="utf-8"?>
<!-- Generator: Adobe Illustrator 21.0.1, SVG Export Plug-In . SVG Version: 6.00 Build 0)  -->
<svg version="1.1" id="Layer_1" xmlns="http://www.w3.org/2000/svg" xmlns:xlink="http://www.w3.org/1999/xlink" x="0px" y="0px"
	 viewBox="0 0 128 64" style="enable-background:new 0 0 128 64;" xml:space="preserve">
<style type="text/css">
	.st0{fill:#C7CBD7;}
	.st1{fill:#83868E;}
</style>
<g>
	<path class="st0" d="M12,32c0,11,9,20,20,20s20-9,20-20s-9-20-20-20S12,21,12,32z M32,48c-8.8,0-16-7.2-16-16
		c0-3.7,1.3-7.1,3.4-9.8l22.4,22.4C39.1,46.7,35.7,48,32,48z M48,32c0,3.7-1.3,7.1-3.4,9.8L22.2,19.4c2.7-2.1,6.1-3.4,9.8-3.4
		C40.8,16,48,23.2,48,32z"/>
</g>
<g>
	<path class="st0" d="M30,17.1l-4.2,4.2h3.4V25l9.4,9.4h4v3.4l4.3-4.2c0.1-0.5,0.1-1,0.1-1.6c0-0.5,0-1-0.1-1.6l-4.3-4.2v3.4H34
		v-8.3h3.5L33.2,17c-0.4,0-0.8-0.1-1.1-0.1C31.3,17,30.6,17.1,30,17.1z"/>
	<path class="st0" d="M34,42.6v-4.4l-8.6-8.6h-4v-3.4l-4.3,4.2C17,30.9,17,31.5,17,32s0,1,0.1,1.6l4.3,4.2v-3.4h7.8v8.3h-3.4
		l4.2,4.1c0.7,0.1,1.3,0.2,2,0.2c0.4,0,0.8,0,1.1,0l4.3-4.3H34V42.6z"/>
</g>
<path class="st1" d="M76,32c0,11,9,20,20,20s20-9,20-20s-9-20-20-20S76,21,76,32z M96,48c-8.8,0-16-7.2-16-16c0-3.7,1.3-7.1,3.4-9.8
	l22.4,22.4C103.1,46.7,99.7,48,96,48z M112,32c0,3.7-1.3,7.1-3.4,9.8L86.2,19.4c2.7-2.1,6.1-3.4,9.8-3.4C104.8,16,112,23.2,112,32z"
	/>
<g>
	<path class="st1" d="M94,17.1l-4.2,4.2h3.4V25l9.4,9.4h4v3.4l4.3-4.2c0.1-0.5,0.1-1,0.1-1.6c0-0.5,0-1-0.1-1.6l-4.3-4.2v3.4H98
		v-8.3h3.5L97.2,17c-0.4,0-0.8-0.1-1.1-0.1C95.3,17,94.6,17.1,94,17.1z"/>
	<path class="st1" d="M98,42.6v-4.4l-8.6-8.6h-4v-3.4l-4.3,4.2C81,30.9,81,31.5,81,32s0,1,0.1,1.6l4.3,4.2v-3.4h7.8v8.3h-3.4
		l4.2,4.1c0.7,0.1,1.3,0.2,2,0.2c0.4,0,0.8,0,1.1,0l4.3-4.3L98,42.6L98,42.6z"/>
</g>
</svg>
